X: 2298
T: Backman's Låt
R: waltz
M: 3/4
K: Gminor
D|GG F2 D2|BB A/B/A/^F/ G>A|BB A/B/A/G/ G/^F/D/F/|AB/A/ G3:|
|:B|dd c2 A>B|cd B/c/B/A/ G>A|BB A/B/A/G/ G/^F/D/F/|AB/A/ G3:|

